svgs/murglar.svg

<svg width="192" height="192" viewBox="0 0 192 192" fill="none" xmlns="http://www.w3.org/2000/svg">
<path d="M82 52H120C121.591 52 123.117 51.3679 124.243 50.2426C125.368 49.1174 126 47.5913 126 46V28C126 26.4087 125.368 24.8826 124.243 23.7574C123.117 22.6321 121.591 22 120 22H88C86.4087 22 84.8826 22.6321 83.7574 23.7574C82.6321 24.8826 82 26.4087 82 28V52ZM82 52V140M82 140C82 123.431 68.5685 110 52 110C35.4315 110 22 123.431 22 140C22 156.569 35.4315 170 52 170C68.5685 170 82 156.569 82 140Z" stroke="black" stroke-width="12" stroke-linejoin="round"/>
<path d="M107 79.5H170M107 103.5H170M107 127.5H129" stroke="black" stroke-width="12" stroke-linecap="round"/>
<path d="M158 155L146 146M158 155L170 146M158 155V128" stroke="black" stroke-width="12" stroke-linecap="round" stroke-linejoin="round"/>
</svg>

<svg xmlns="http://www.w3.org/2000/svg" width="192" height="192" fill="none" viewBox="0 0 192 192"><path stroke="#000" stroke-linejoin="round" stroke-width="12" d="M82 52h38a6 6 0 0 0 6-6V28a6 6 0 0 0-6-6H88a6 6 0 0 0-6 6zm0 0v88m0 0c0-16.569-13.431-30-30-30-16.568 0-30 13.431-30 30s13.432 30 30 30c16.569 0 30-13.431 30-30Z"/><path stroke="#000" stroke-linecap="round" stroke-width="12" d="M107 79.5h63m-63 24h63m-63 24h22"/><path stroke="#000" stroke-linecap="round" stroke-linejoin="round" stroke-width="12" d="m158 155-12-9m12 9 12-9m-12 9v-27"/></svg>
